X:87
T:Old Grey Goose, The
R:jig
D:Arcady: Many Happy Returns
Z:id:hn-jig-87
M:6/8
K:Em
GBG FAF|GEE EFE|DFA dAG|FDD DEF|GFG AGA|BAB ~g3|edB BAF|GEE E2F:|
|:~G3 dBG|GAB dBG|~A3 ecA|AB/c/d ecA|GFG dBG|efg gfg|edB BAF|1 GEE E2F:|2 GEE E3||
|:efe edB|def g2e|fdd add|fag fed|efe edB|def ~g3|edB BAF|1 GEE E3:|2 GEE E2c||
|:BGG AFF|GEE E2c|BGB dAG|FDD D2c|BGG AFF|GEE ~g3|edB BAF|1 GEE E2c:|2 GEE E3||
|:gbg faf|gee e2f|~g3 bag|fdd def|gbg faf|edB ~g3|edB BAF|GEE E3:|
|:gdB B2A|GEE EGB|gdB BAG|~F3 DEF|GFG AGA|BAB ~g3|edB BAF|1 GEE E3:|2 GEE E2F||
P:variations:
|:GBG FAF|GEE EFE|DFA dAG|FAF DEF|~G3 AGA|BAB g2f|edB BAF|GEE E2F:|
|:GFG dBG|GFG dBG|~A3 ecA|AB/c/d ecA|~G3 dBG|efg g2f|edB BAF|1 GEE E2F:|2 GEE E3||
|:~e3 edB|def g2e|fdd add|fag fed|~e3 edB|def g2f|edB BAF|1 GEE E3:|2 GEE E2c||
|:BGB AFA|GEE E2c|BGB dAG|F/G/AF D2c|BGB AFA|GEE g2f|edB BAF|1 GEE E2c:|2 GEE E3||
|:gbg faf|gee e2f|gfg bag|faf def|gbg faf|edB g2f|edB BAF|GEE E3:|
|:gdB B2A|GEE EGB|gdB BAG|FAF DEF|~G3 AGA|BAB g2f|edB BAF|1 GEE E3:|2 GEE E2F||

